X: 27
T:Saturday Night, Longborough 1
M:6/8
L:1/8
A:Longborough
P:A(AB)6A2
K:G
P:A
BAB/c d2D|EAG FED|BAB/c d2D|DEF G3||
P:B
AFD   D2D|EFE D2c|BAG   Bcd|DEF G3||
